X:761
T:White Cockade
M:2/4
L:1/16
K:G
|:GA|"G"B2B2 "D7"cBAG|"G"B2B2 B2"C"ge|"G"d2B2 "Em"cBAG|\
"D7"B2A2 A2GA|"G"B2B2 "D7"cBAG|
"Bm"B2d2 "Em"g3a|"C"bagf "D"efge|"G"d2B2 B2:||:Bc|"G"d2B2 g2B2|"G"d2d2 d3e|
"G"d2B2 g2fg|"A7"a2A2 A2"D7"GA|"G"B2B2 "D7"cBAG|\
"G"B2d2 "Em"g3a|"G"bagf "C"efge|"G"d2B2 B2:|
